X: 36514
T: Sergeant Early's Dream
R: reel
M: 4/4
K: Adorian
|:gf|eAAB cBce|dBGA BcdB|AEAB cBcd|eaab c'bag|
eAAB cege|dBGA BcdB|AEAf gbge|dcBe A2:|
|:cd|eaa^g a2 ag|eaab c'bag|eggf g2 ga|bc'ba gfed|
eaa^g aeag|eaab c'baf|gbaf gedB|cABe A2:|

